Gruvbox-Plus-Dark/panel/16/kazam-stopped.svg

<svg width="16" height="16" version="1" xmlns="http://www.w3.org/2000/svg">
  <defs>
    <style id="current-color-scheme" type="text/css">.ColorScheme-Text { color:#ebdbb2; } .ColorScheme-Highlight { color:#458588; } .ColorScheme-NeutralText { color:#fe8019; } .ColorScheme-PositiveText { color:#689d6a; } .ColorScheme-NegativeText { color:#fb4934; }</style>
  </defs>
  <path class="ColorScheme-Text" d="m0.1816 2c-0.6547 0-1.182 0.5344-1.182 1.199v9.602c0 0.665 0.5269 1.199 1.182 1.199h10.64c0.655 0 1.182-0.534 1.182-1.199v-2.801l5 2v-8l-5 2v-2.801c0-0.6648-0.527-1.199-1.182-1.199zm1.818 3h6v6h-6z" fill="currentColor"/>
</svg>

<svg xmlns="http://www.w3.org/2000/svg" width="16" height="16" version="1">
 <defs>
  <style id="current-color-scheme" type="text/css">
   .ColorScheme-Text { color:#ebdbb2; } .ColorScheme-Highlight { color:#458588; }
  </style>
 </defs>
 <path style="fill:currentColor" class="ColorScheme-Text" d="M 0.1816,2 C -0.4731,2 -1,2.5344 -1,3.1992 V 12.801 C -1,13.466 -0.4731,14 0.1816,14 H 10.818 C 11.473,14 12,13.466 12,12.801 V 10 L 17,12 V 4 L 12,6 V 3.1992 C 12,2.5344 11.473,2 10.818,2 Z M 2,5 H 8 V 11 H 2 Z"/>
</svg>
